X:1
T:Soledad
T:Soledad
T:Bourrée 2 temps
T:JMiB
Z:JMiB
%%score 1 2 3 { 4 | 5 }
L:1/8
Q:1/4=120
M:2/4
K:G
V:1 treble nm="Piano"
V:2 treble nm="Piano"
V:3 treble nm="Piano"
V:4 treble nm="Piano"
V:5 bass 
V:1
"^7" B2"^6" G"^7'"e |"^7" B2 z"^7'" e |"^7'" d>"^9"e"^7'" d"^8"c |"^7" B2"^6" G2 | %4
"^7" B2"^6'" G"^7'"e |"^7" B2 z"^6'" c |"^7'" d>"^9"e"^7'" d"^8"c |1"^7" B2 z2 :|2 %8
"^7" B2 z"^7" B |:"^8" c>"^6'"B"^7" A"^6'"B |"^6" G2"^4'" E"^6"G |"^6'" B2"^6'" B2 | %12
"^6" G2"^4'" E"^7"B |"^8" c>"^6'"B"^7" A"^6'"B |"^6" G2"^4'" E"^6"G |1"^6" G2"^7" A2 | %16
"^7" B2 z"^7" B :|2"^6" G2"^6" F2 |"^4'" E2 z2 |] %19
V:2
"^7" B2"^6" G"^6"F |"^4'" E2"^6" G"^7"B |"^7" A>"^6"G"^6" F"^7"A |"^6" G2"^4'" E2 | %4
"^7" B2"^6" G"^6"F |"^4'" E2 z"^6" G |"^6" F>"^6"G"^6" F"^5"E |1"^5" D2 z2 :|2"^5" D2 z"^5" D |: %9
"^5" E>"^6"F"^6" G"^6"F |"^4'" E2"^7" B"^7"B |"^3'" D2"^6" F2 |"^4'" E2"^7" B"^7"B | %13
"^5" E>"^6"F"^6" G"^6"F |"^4'" E2"^7" B"^7"B |1"^6" G2"^6" F2 |"^6" G2 z2 :|2"^4'" E2"^3'" D2 | %18
"^4'" E2 z2 |] %19
V:3
"^7'" e>"^7"B"^6" G"^7'"e |"^7" B"^6"G"^7'" e"^7"B |"^7'" d>"^7"A"^6" F"^7'"d | %3
"^7'" e"^7"B"^6" G2 |"^7'" e>"^7"B"^6" G"^7'"e |"^7" B"^6"G"^7'" e"^7"B | %6
"^7'" d>"^7"A"^6" F"^7'"d |1"^8" d"^7"B"^6" G2 :|2"^6" G2"^7""^8" [^GBd]2 |: %9
"^9" e>"^8"c"^7" A"^8"c |"^7'" e"^7"B"^6" G"^7"B |"^6""^6'""^7'" [FBd]2"^6""^6'""^7'" [FBd]2 | %12
"^7'" e2"^6" G"^7"B |"^9" e>"^8"c"^7" A"^8"c |"^7'" e"^7"B"^6" G"^7"B |1 %15
"^6""^6'""^7'" [Gce]2"^7""^7'""^10" [Adf]2 |"^6""^7""^8" [GBd]2 z2 :|2 %17
"^6""^6'""^7'" [Gce]2"^6""^7""^7'" [FAd]2 |"^6""^7""^7'" [GBe]2 z2 |] %19
V:4
"^4'" E2"^5" D"^4'"E |"^6" G"^6"G z"^4'" E |"^6" F"^6"F z"^3'" D |"^4'" E2 z2 | %4
"^4'" E2"^5" D"^4'"E |"^6" G"^6"G z"^4'" E |"^6" F"^6"F z"^6" F |1"^6" G2 z2 :|2"^6" G2 ^G2 |: %9
"^7" A"^7"A z"^7" A |"^7" B"^7"B z"^6" G |"^6" F2"^3'" D2 |"^7" B"^7"B z2 |"^7" A"^7"A z"^7" A | %14
"^7" B"^7"B z"^6" G |1"^4'" E2"^6" F2 |"^6" G2 z2 :|2"^6" G2"^6" F2 |"^4'" E2 z2 |] %19
V:5
"Em" E,,[E,G,B,] z [E,G,B,] | E,,[E,G,B,] z [E,G,B,] |"D" D,,[F,A,D] z [F,A,D] | %3
"Em" E,,[E,G,B,] z [E,G,B,] | E,,[E,G,B,] z [E,G,B,] | E,,[E,G,B,] z [E,G,B,] | %6
"D" D,,[F,A,D] z [F,A,D] |1"G" G,,[G,B,D] z [G,B,D] :|2"G" G,,[G,B,D]"E7/G#" ^G,,[G,B,DE] |: %9
"Am" A,,[E,A,C] z [E,A,C] |"Em" E,,[E,G,B,] z [E,G,B,] |"D" D,,[F,A,D] z [F,A,D] | %12
"Em" E,,[E,G,B,] z [E,G,B,] |"Am" A,,[E,A,C] z [E,A,C] |"Em" E,,[E,G,B,] z [E,G,B,] |1 %15
"C" C,,[E,G,C]"D" D,,[F,A,D] |"Em" E,,[E,G,B,] z [E,G,B,] :|2"C" C,,[E,G,C]"D" D,,[F,A,D] | %18
"Em" E,,[E,G,B,] z [E,G,B,] |] %19

